Origami/48x48/apps/mullvad.svg

<svg width="48" height="48" version="1.1" viewBox="0 0 48 48" xmlns="http://www.w3.org/2000/svg">
 <g transform="translate(0,-1004.3622)">
  <g transform="translate(.00177778 1004.3622)">
   <rect transform="matrix(0,-1,-1,0,0,0)" x="-44" y="-44" width="40" height="40" rx="20" ry="20" style="fill:#3c5873"/>
   <path d="m24 4c-11.08 0-20 8.92-20 20 0 0.168-4e-3 0.333 0 0.5 0.2644-10.846 9.088-19.5 20-19.5s19.736 8.654 20 19.5c4e-3 -0.167 0-0.332 0-0.5 0-11.08-8.92-20-20-20z" style="fill:#ffffff;opacity:.1"/>
   <path d="m4.0117 24.5c-0.0041 0.167-0.0117 0.332-0.0117 0.5 0 11.08 8.92 20 20 20s20-8.92 20-20c0-0.168-8e-3 -0.333-0.012-0.5-0.264 10.846-9.076 19.5-19.988 19.5s-19.724-8.654-19.988-19.5z" style="opacity:.2"/>
   <path d="m27.315536 39.67379c0.722257-0.18707 2.094654-0.572096 2.682524-0.85562 1.194016-0.575858 3.00388-2.03807 3.00388-2.426873-0.759042-1.314551-1.869532-2.691291-3.00194-3.391299 0.840602-0.542173 1.120617-0.900125 0.949243-1.871744 0 0-0.08785-0.350892 0.520931-0.820712 2.499916-2.508586 6.195611-5.426204 7.529785-8.40414 0-0.768159-0.436722-0.934983-1.587917-0.903404-0.559208 0.01534-2.423215-0.02007-4.142288 0-3.106405 0.03627-4.262163 0-4.262163 0s-3.246699-0.06057-4.236468 0.721994c-2.503295 1.979245-3.629173 1.857556-5.724857 2.555825-1.952753 0.650645-2.046266-0.277819-2.046266 4.365416-0.423728 2.628642-0.08965 4.963887-1.881268 7.299646-0.217937 0.287109-0.16572 0.420114 0.408309 1.040023 1.135441 1.226194 3.528269 2.416889 5.71199 2.842341 1.478221 0.288 4.688723 0.207979 6.076466-0.151453z" style="opacity:.2"/>
   <path d="m27.315536 38.673792c0.722257-0.18707 2.094654-0.572096 2.682524-0.85562 1.194016-0.575858 3.00388-2.03807 3.00388-2.426873-0.759042-1.314551-1.869532-2.691291-3.00194-3.391299 0.840602-0.542173 1.120617-0.900125 0.949243-1.871744 0 0-0.08785-0.350892 0.520931-0.820712 2.499916-2.508586 6.195611-5.426204 7.529785-8.40414 0-0.768159-0.436722-0.934983-1.587917-0.903404-0.559208 0.01534-2.423215-0.02007-4.142288 0-3.106405 0.03627-4.262163 0-4.262163 0s-3.246699-0.06057-4.236468 0.721994c-2.503295 1.979245-3.629173 1.857556-5.724857 2.555825-1.952753 0.650645-2.046266-0.277819-2.046266 4.365416-0.423728 2.628642-0.08965 4.963887-1.881268 7.299646-0.217937 0.287109-0.16572 0.420114 0.408309 1.040023 1.135441 1.226194 3.528269 2.416889 5.71199 2.842341 1.478221 0.288 4.688723 0.207979 6.076466-0.151453z" style="fill:#d2943b"/>
   <path d="m26.228516 30.745723c-0.853619-0.286118-1.952335-1.063337-2.802258-1.982282-0.475983-0.514638-0.523339-0.6369-0.28984-0.748289 0.173852-0.08293 0.701958 0.178273 1.400448 0.69267 1.259809 0.927782 2.451795 1.483584 3.247499 1.514253 0.294067 0.01133 0.721755 0.08939 0.950419 0.173471 0.393386 0.14464 0.379967 0.165712-0.249452 0.391709-0.819691 0.294316-1.280123 0.285842-2.256816-0.04153z" style="fill:#ffffff"/>
   <path d="m21.5 14.999196c-3.589851 0-6.5 2.910149-6.5 6.5 0 1.544572 0.541587 2.960918 1.441406 4.076172 0.19828 0.508108 0.353244 0.928805 0.347656 1.041016-0.01906 0.382812 0.266575 0.694375 2.69336-0.173829 2.559558-0.915703 3.685307-1.575019 6.376953-3.736328 1.006979-0.808573 2.237595-1.572444 3.363281-2.08789 0.976121-0.446961 1.777344-0.523236 1.777344-0.619141 0-1-1.286937-0.907313-2-1h-1.517578c-0.981584-2.344477-3.281703-4-5.982422-4z" style="opacity:.2"/>
   <path d="m21.5 14c-3.589851 0-6.5 2.910149-6.5 6.5 0 1.544572 0.541587 2.960918 1.441406 4.076172 0.19828 0.508108 0.353244 0.928805 0.347656 1.041016-0.019062 0.382812 0.266575 0.694375 2.69336-0.173829 2.559558-0.915703 3.685307-1.575019 6.376953-3.736328 1.006979-0.808573 2.237595-1.572444 3.363281-2.08789 0.976121-0.446961 1.777344-0.523236 1.777344-0.619141 0-1-1.286937-0.907313-2-1h-1.517578c-0.981584-2.344477-3.281703-4-5.982422-4z" style="fill:#ffd548"/>
   <path d="m26.228516 31.745723c-0.853619-0.286118-1.952335-1.063337-2.802258-1.982282-0.475983-0.514638-0.523339-0.6369-0.28984-0.748289 0.173852-0.08293 0.701958 0.178273 1.400448 0.69267 1.259809 0.927782 2.451795 1.483584 3.247499 1.514253 0.294067 0.01133 0.721755 0.08939 0.950419 0.173471 0.393386 0.14464 0.379967 0.165712-0.249452 0.391709-0.819691 0.294316-1.280123 0.285842-2.256816-0.04153z" style="opacity:.2"/>
   <circle cx="39" cy="21" r="2" style="opacity:.2"/>
   <circle cx="39" cy="20" r="2" style="fill:#efc286"/>
  </g>
 </g>
</svg>

<svg xmlns="http://www.w3.org/2000/svg" width="48" height="48" version="1.1" viewBox="0 0 48 48">
 <g transform="translate(0,-1004.3622)">
  <g transform="translate(0.00177778,1004.3622)">
   <rect style="fill:#3c5873" width="40" height="40" x="-44" y="-44" rx="20" ry="20" transform="matrix(0,-1,-1,0,0,0)"/>
   <path style="opacity:0.1;fill:#ffffff" d="M 24,4 C 12.92,4 4,12.92 4,24 4,24.168 3.996,24.333 4,24.5 4.2644,13.654 13.088,5 24,5 34.912,5 43.736,13.654 44,24.5 44.004,24.333 44,24.168 44,24 44,12.92 35.08,4 24,4 Z"/>
   <path style="opacity:0.2" d="M 4.0117,24.5 C 4.0076,24.667 4,24.832 4,25 4,36.08 12.92,45 24,45 35.08,45 44,36.08 44,25 44,24.832 43.992,24.667 43.988,24.5 43.724,35.346 34.912,44 24,44 13.088,44 4.276,35.346 4.012,24.5 Z"/>
   <path style="opacity:0.2" d="m 27.315536,39.67379 c 0.722257,-0.18707 2.094654,-0.572096 2.682524,-0.85562 1.194016,-0.575858 3.00388,-2.03807 3.00388,-2.426873 C 32.242898,35.076746 31.132408,33.700006 30,32.999998 c 0.840602,-0.542173 1.120617,-0.900125 0.949243,-1.871744 0,0 -0.08785,-0.350892 0.520931,-0.820712 2.499916,-2.508586 6.195611,-5.426204 7.529785,-8.40414 0,-0.768159 -0.436722,-0.934983 -1.587917,-0.903404 -0.559208,0.01534 -2.423215,-0.02007 -4.142288,0 -3.106405,0.03627 -4.262163,0 -4.262163,0 0,0 -3.246699,-0.06057 -4.236468,0.721994 -2.503295,1.979245 -3.629173,1.857556 -5.724857,2.555825 C 17.093513,24.928462 17,23.999998 17,28.643233 c -0.423728,2.628642 -0.08965,4.963887 -1.881268,7.299646 -0.217937,0.287109 -0.16572,0.420114 0.408309,1.040023 1.135441,1.226194 3.528269,2.416889 5.71199,2.842341 1.478221,0.288 4.688723,0.207979 6.076466,-0.151453 z"/>
   <path style="fill:#d2943b" d="m 27.315536,38.673792 c 0.722257,-0.18707 2.094654,-0.572096 2.682524,-0.85562 1.194016,-0.575858 3.00388,-2.03807 3.00388,-2.426873 C 32.242898,34.076748 31.132408,32.700008 30,32 c 0.840602,-0.542173 1.120617,-0.900125 0.949243,-1.871744 0,0 -0.08785,-0.350892 0.520931,-0.820712 2.499916,-2.508586 6.195611,-5.426204 7.529785,-8.40414 0,-0.768159 -0.436722,-0.934983 -1.587917,-0.903404 -0.559208,0.01534 -2.423215,-0.02007 -4.142288,0 -3.106405,0.03627 -4.262163,0 -4.262163,0 0,0 -3.246699,-0.06057 -4.236468,0.721994 -2.503295,1.979245 -3.629173,1.857556 -5.724857,2.555825 C 17.093513,23.928464 17,23 17,27.643235 c -0.423728,2.628642 -0.08965,4.963887 -1.881268,7.299646 -0.217937,0.287109 -0.16572,0.420114 0.408309,1.040023 1.135441,1.226194 3.528269,2.416889 5.71199,2.842341 1.478221,0.288 4.688723,0.207979 6.076466,-0.151453 z"/>
   <path style="fill:#ffffff" d="m 26.228516,30.745723 c -0.853619,-0.286118 -1.952335,-1.063337 -2.802258,-1.982282 -0.475983,-0.514638 -0.523339,-0.6369 -0.28984,-0.748289 0.173852,-0.08293 0.701958,0.178273 1.400448,0.69267 1.259809,0.927782 2.451795,1.483584 3.247499,1.514253 0.294067,0.01133 0.721755,0.08939 0.950419,0.173471 0.393386,0.14464 0.379967,0.165712 -0.249452,0.391709 -0.819691,0.294316 -1.280123,0.285842 -2.256816,-0.04153 z"/>
   <path style="opacity:0.2" d="m 21.5,14.999196 c -3.589851,0 -6.5,2.910149 -6.5,6.5 0,1.544572 0.541587,2.960918 1.441406,4.076172 0.19828,0.508108 0.353244,0.928805 0.347656,1.041016 -0.01906,0.382812 0.266575,0.694375 2.69336,-0.173829 2.559558,-0.915703 3.685307,-1.575019 6.376953,-3.736328 1.006979,-0.808573 2.237595,-1.572444 3.363281,-2.08789 C 30.198777,20.171376 31,20.095101 31,19.999196 c 0,-1 -1.286937,-0.907313 -2,-1 l -1.517578,0 c -0.981584,-2.344477 -3.281703,-4 -5.982422,-4 z"/>
   <path style="fill:#ffd548" d="m 21.5,14 c -3.589851,0 -6.5,2.910149 -6.5,6.5 0,1.544572 0.541587,2.960918 1.441406,4.076172 0.19828,0.508108 0.353244,0.928805 0.347656,1.041016 C 16.77,26 17.055637,26.311563 19.482422,25.443359 22.04198,24.527656 23.167729,23.86834 25.859375,21.707031 26.866354,20.898458 28.09697,20.134587 29.222656,19.619141 30.198777,19.17218 31,19.095905 31,19 31,18 29.713063,18.092687 29,18 l -1.517578,0 C 26.500838,15.655523 24.200719,14 21.5,14 Z"/>
   <path style="opacity:0.2" d="m 26.228516,31.745723 c -0.853619,-0.286118 -1.952335,-1.063337 -2.802258,-1.982282 -0.475983,-0.514638 -0.523339,-0.6369 -0.28984,-0.748289 0.173852,-0.08293 0.701958,0.178273 1.400448,0.69267 1.259809,0.927782 2.451795,1.483584 3.247499,1.514253 0.294067,0.01133 0.721755,0.08939 0.950419,0.173471 0.393386,0.14464 0.379967,0.165712 -0.249452,0.391709 -0.819691,0.294316 -1.280123,0.285842 -2.256816,-0.04153 z"/>
   <circle style="opacity:0.2" cx="39" cy="21" r="2"/>
   <circle style="fill:#efc286" cx="39" cy="20" r="2"/>
  </g>
 </g>
</svg>
